X: 37146
T: Siobhán Ní Dhuibhir
R: waltz
M: 3/4
K: Adorian
D2|D2 A2 A2|A2 B2 c2|A2 G2 E2|D4 D2|D4|
|:A2|d4 d2|c4 c2|B2 A2 G2|B4 c2|A4:|
D2|D2 A2 A2|A2 B2 c2|A2 G2 E2|D4 D2|D4|

